src/Resources/ssw_auto128.svg

<?xml version="1.0" encoding="UTF-8" standalone="no"?>
<svg
   xmlns:dc="http://purl.org/dc/elements/1.1/"
   xmlns:cc="http://creativecommons.org/ns#"
   xmlns:rdf="http://www.w3.org/1999/02/22-rdf-syntax-ns#"
   xmlns:svg="http://www.w3.org/2000/svg"
   xmlns="http://www.w3.org/2000/svg"
   xmlns:sodipodi="http://sodipodi.sourceforge.net/DTD/sodipodi-0.dtd"
   xmlns:inkscape="http://www.inkscape.org/namespaces/inkscape"
   width="128"
   height="128"
   version="1.1"
   id="svg10"
   sodipodi:docname="ssw_manual128.svg"
   inkscape:version="0.92.2pre0 (973e216, 2017-07-25)">
  <metadata
     id="metadata16">
    <rdf:RDF>
      <cc:Work
         rdf:about="">
        <dc:format>image/svg+xml</dc:format>
        <dc:type
           rdf:resource="http://purl.org/dc/dcmitype/StillImage" />
        <dc:title></dc:title>
      </cc:Work>
    </rdf:RDF>
  </metadata>
  <defs
     id="defs14" />
  <sodipodi:namedview
     pagecolor="#ffffff"
     bordercolor="#666666"
     borderopacity="1"
     objecttolerance="10"
     gridtolerance="10"
     guidetolerance="10"
     inkscape:pageopacity="0"
     inkscape:pageshadow="2"
     inkscape:window-width="1920"
     inkscape:window-height="998"
     id="namedview12"
     showgrid="false"
     inkscape:zoom="4.1861895"
     inkscape:cx="7.5458536"
     inkscape:cy="45.542334"
     inkscape:window-x="0"
     inkscape:window-y="0"
     inkscape:window-maximized="1"
     inkscape:current-layer="svg10" />
  <path
     style="fill:#197dbf; stroke:none;"
     d="M4 68C11.678 73.7435 23.9588 76.0901 33 79.3079C36.2247 80.4555 40.5121 82.6414 44 81.8164C49.5261 80.5091 54.7889 73.9823 59 70.4244C69.8104 61.2906 80.3229 50.9845 92 43C84.5498 51.5344 77.3389 60.3004 70.0802 69C65.5542 74.4245 60.2486 79.7044 57 86C68.0717 90.2393 79.726 93.0089 91 96.6698C94.0627 97.6643 100.324 100.889 103.411 98.8819C105.193 97.7237 105.425 94.8678 105.883 92.9992C107.276 87.329 108.769 81.6813 110.116 76C113.355 62.3352 116.472 48.6252 119.873 35C122.167 25.8135 125.247 16.4669 126 7C110.859 11.3617 96.1135 21.6963 82 28.7531C56.114 41.6961 28.9905 53.4139 4 68z"
     id="path4" />
  <path
     style="fill:#197dbf; stroke:none;"
     d="M58 95C58 104.296 58.7022 113.831 57 123C63.6657 118.956 70.265 107.216 73 100C68.0634 98.0956 63.1641 96.1947 58 95z"
     id="path8" />
  <path
     style="fill:#808080;fill-opacity:1;stroke-width:0.23888072"
     d="M 99.173325,99.261795 C 98.499315,99.144299 96.564381,98.551251 94.873471,97.943909 90.421719,96.34493 88.507716,95.743495 78.541206,92.811843 67.955541,89.698064 57.280821,86.170758 57.280821,85.786655 c 0,-0.414683 3.066498,-5.019223 4.778331,-7.174969 0.83464,-1.051075 2.820446,-3.415994 4.412904,-5.255376 1.592457,-1.839382 6.396466,-7.536687 10.675572,-12.660679 4.279106,-5.123991 9.352364,-11.143785 11.273907,-13.37732 1.92154,-2.233535 3.49445,-4.141225 3.49535,-4.239311 0.0041,-0.44832 -9.735369,7.014326 -14.092322,10.797896 -10.472824,9.094578 -21.234819,18.600371 -23.609148,20.853353 -3.603714,3.419537 -5.572932,4.93552 -7.923107,6.099528 -1.718348,0.851075 -1.889282,0.886678 -4.180413,0.870711 -2.236951,-0.0156 -2.586219,-0.08902 -5.494257,-1.155177 C 32.224863,78.93482 28.84064,77.817687 22.42396,75.859978 14.129767,73.329443 9.5384803,71.448183 5.7107253,69.011801 L 4.1861419,68.041395 5.7107253,67.147236 C 16.088125,61.060952 30.663596,53.61004 54.773483,42.066582 75.484397,32.150505 85.046332,27.38314 91.679646,23.666003 c 12.504774,-7.00735 14.605614,-8.147315 19.205134,-10.421146 6.06996,-3.000757 14.42911,-6.3055108 14.85985,-5.8747721 0.23879,0.2387912 -0.5719,5.6866211 -1.46566,9.8492541 -0.45136,2.102151 -1.57985,6.670744 -2.50777,10.152431 -2.01385,7.556254 -4.55807,17.979413 -8.92129,36.548751 -4.73056,20.132655 -7.94755,32.892238 -8.53089,33.836098 -0.86398,1.397947 -2.69254,1.93282 -5.145695,1.505176 z"
     id="path9"
     inkscape:connector-curvature="0" />
  <path
     style="fill:#ffffff;fill-opacity:1;stroke-width:0.23888072"
     d="m 57.366425,121.59414 c 0.653988,-4.742 0.732843,-6.44907 0.741337,-16.04855 0.0065,-7.371192 0.0847,-10.331514 0.272846,-10.331589 0.966442,-3.83e-4 13.843862,4.353165 14.338049,4.847349 0.180822,0.18083 -0.978429,2.8175 -2.838141,6.45526 -3.543696,6.93177 -8.203625,13.06109 -11.981225,15.7592 l -0.695374,0.49666 z"
     id="path11"
     inkscape:connector-curvature="0" />
  <path
     style="fill:#ffffff;fill-opacity:1;stroke-width:0.23888072"
     d="M 94.187893,97.59247 C 91.428821,96.671755 85.032789,94.676312 79.97449,93.158151 71.528313,90.62318 59.550914,86.772585 57.913683,86.065861 l -0.680985,-0.293952 1.892139,-2.863471 c 2.065525,-3.125864 3.462693,-4.902561 8.544838,-10.865972 1.847482,-2.167843 5.341561,-6.306451 7.764619,-9.196908 4.001592,-4.77348 15.344389,-18.276449 16.203715,-19.289619 1.282536,-1.512146 -2.639807,1.22618 -8.79695,6.141459 -5.036507,4.020671 -21.755597,18.616598 -29.996683,26.187398 -2.704524,2.48455 -4.298874,3.668312 -6.416766,4.764273 -1.761352,0.911459 -1.922591,0.948626 -4.115297,0.948626 -2.262673,0 -2.345522,-0.02126 -9.721535,-2.493456 C 28.4991,77.732839 23.055185,75.947487 20.493189,75.136796 17.931193,74.326101 14.767728,73.237694 13.463266,72.718111 9.3012763,71.060344 4.3479234,68.401692 4.6152974,67.969072 4.7820481,67.699263 11.399456,63.953026 17.029418,60.941206 23.216935,57.631114 41.850547,48.348159 53.936491,42.554716 72.938151,33.446199 87.149509,26.278227 96.098939,21.288682 109.31041,13.922935 116.35738,10.481109 122.85358,8.2213959 l 2.62769,-0.914046 0.0737,0.9606014 c 0.15246,1.9859807 -1.31653,8.9302537 -4.97607,23.5231117 -2.07572,8.277218 -5.34971,21.714259 -7.27552,29.860091 -3.96296,16.762655 -7.48138,31.032957 -8.39286,34.040504 -0.67946,2.241989 -1.03576,2.775665 -2.17501,3.25786 -1.60442,0.679076 -3.209907,0.424185 -8.547657,-1.357048 z"
     id="path32"
     inkscape:connector-curvature="0" />
</svg>

<?xml version="1.0"?>
<svg width="128" height="128" xmlns="http://www.w3.org/2000/svg" xmlns:svg="http://www.w3.org/2000/svg">
 <metadata id="metadata16">image/svg+xml</metadata>

 <g class="layer">
  <title>Layer 1</title>
  <path d="m4,68c7.678,5.7435 19.9588,8.0901 29,11.3079c3.2247,1.1476 7.5121,3.3335 11,2.5085c5.5261,-1.3073 10.7889,-7.8341 15,-11.392c10.8104,-9.1338 21.3229,-19.4399 33,-27.4244c-7.4502,8.5344 -14.6611,17.3004 -21.9198,26c-4.526,5.4245 -9.8316,10.7044 -13.0802,17c11.0717,4.2393 22.726,7.0089 34,10.6698c3.0627,0.9945 9.324,4.2192 12.411,2.2121c1.782,-1.1582 2.014,-4.0141 2.472,-5.8827c1.393,-5.6702 2.886,-11.3179 4.233,-16.9992c3.239,-13.6648 6.356,-27.3748 9.757,-41c2.294,-9.1865 5.374,-18.5331 6.127,-28c-15.141,4.3617 -29.8865,14.6963 -44,21.7531c-25.886,12.943 -53.0095,24.6608 -78,39.2469z" fill="#76c2f2" id="path4"/>
  <path d="m58,95c0,9.296 0.7022,18.831 -1,28c6.6657,-4.044 13.265,-15.784 16,-23c-4.9366,-1.9044 -9.8359,-3.8053 -15,-5z" fill="#76c2f2" id="path8"/>
 </g>
</svg>
